X: 37860
T: Sorry I Am For What I Have Done
R: jig
M: 6/8
K: Dmajor
e|a^ga f2e|dcd B2A|Bee e2f|edB dBA|
a^ga f2e|dcd B2 A|def afe|fdd d2:|
c|dBB fBB|dBB Bcd|eAA cAA|eAA ABc|
dBB fBB|dBB Bcd|ecA d2e|fdd d2:|

